!!!!SEGMENT: Ver3033-Liete_madonna.krn
!!!id: Ver3033
!!!AGN: Madrigal
!!!voices: 4
!!!COM: Philippe Verdelot
!!!OTL: Liet'è madonna
**kern	**kern	**kern	**kern
*part4	*part3	*part2	*part1
*staff4	*staff3	*staff2	*staff1
*I"Bassus	*I"Tenor	*I"Altus	*I"Superius
*I'B	*I'T	*I'A	*I'S
*clefF4	*clefGv2	*clefGv2	*clefG2
*k[b-]	*k[b-]	*k[b-]	*k[b-]
*F:	*F:	*F:	*F:
*M2/1	*M2/1	*M2/1	*M2/1
*met(C)	*met(C)	*met(C)	*met(C)
0F	0a	0f	0cc
=1	=1	=1	=1
2G	2.g	2d	2.b-y
2G	.	2B-y	.
.	4f	.	4a
2C	2e	2c	2g
2C	2e	2c	2g
=2	=2	=2	=2
1.F	2.f	2c	1.a
.	.	2.f	.
.	4e	.	.
.	4d	.	.
.	4c	4e	.
2G	2B-y	[2d	2g
=3	=3	=3	=3
2A	2c	2d]	2e
2A	2c	2.c	2f
1G	1d	.	1g
.	.	8B-yL	.
.	.	8AJ	.
.	.	2B-y	.
=4	=4	=4	=4
1C	1c	1G	1e
2r	2r	2r	2r
[2C	[2c	[2e	[2g
=5	=5	=5	=5
2C]	2c]	2e]	2g]
2C	2c	2e	2g
2F	2A	2c	2a
2D	[2B-y	[2d	2f
=6	=6	=6	=6
4G	2B-]	2d]	2.g
4F	.	.	.
4E	2G	2.c	.
4D	.	.	4f
2C	2.c	.	4e
.	.	4B-y	4d
[2F	.	4A	[2c
.	4B-y	4G	.
=7	=7	=7	=7
4F]	4A	2F	2c]
4E	4G	.	.
4D	1F	1B-y	1d
4C	.	.	.
2BB-y	.	.	.
2C	2E	[2A	[2c
=8	=8	=8	=8
1D	2F	4A]	2c]
.	.	4G	.
.	2F	1F	2BnXi
1C	1G	.	2c
.	.	2E	2c
=9	=9	=9	=9
2r	2A	2F	2r
2F	2A	2f	2cc
2G	2G	2d	2b-y
2D	2F	2d	2a
=10	=10	=10	=10
2E	2G	2B-y	2g
2E	2G	2c	2g
2D	1A	2d	2f
2D	.	2d	2f
=11	=11	=11	=11
2r	1A	2r	2r
2D	.	2.f	2a
2D	2r	.	2a
.	.	4e	.
2D	[2f	2d	2a
=12	=12	=12	=12
2.F	4f]	2c	2.a
.	4e	.	.
.	2d	2f	.
4G	.	.	4b-y
2A	2c	2e	2cc
2D	2f	[2a	[2dd
=13	=13	=13	=13
1A	1e	4a]	2dd]
.	.	4g	.
.	.	2e	2cc#i
1D	[1d	1f	1dd
=14	=14	=14	=14
2r	1d]	2r	2r
2D	.	2.f	2a
2D	2r	.	2a
.	.	4e	.
2D	[2f	2d	2a
=15	=15	=15	=15
2.F	4f]	2c	2.a
.	4e	.	.
.	2d	2f	.
4G	.	.	4b-y
2A	2c	2e	2cc
2D	2f	[2a	[2dd
=16	=16	=16	=16
1A	1e	4a]	2dd]
.	.	4g	.
.	.	2e	2cc#i
1D	1d	1f	1dd
=17	=17	=17	=17
0F	0A	0f	0cc
=18	=18	=18	=18
2BB-y	2d	2f	2b-y
2BB-y	2d	2f	2b-y
2C	2c	2e	2a
2C	2c	2e	2g
=19	=19	=19	=19
2.BB-y	1.d	1.f	1.b-y
4C	.	.	.
4D	.	.	.
4E	.	.	.
2F	[2c	2f	2a
=20	=20	=20	=20
2C	4c]	2e	2g
.	4B-y	.	.
2D	2A	2f	1f
1BB-y	1B-y	1d	.
.	.	.	4e
.	.	.	4d
=21	=21	=21	=21
1C	1G	2c	4e
.	.	.	2f
.	.	2g	.
.	.	.	4e
1F	1F	2.a	2f
.	.	.	2cc
.	.	4g	.
=22	=22	=22	=22
0r	0r	2f	2.dd
.	.	2e	.
.	.	.	4cc
.	.	4d	2b-y
.	.	4c	.
.	.	[2f	2a
=23	=23	=23	=23
2r	1r	2f]	1g
2c	.	2e	.
2.d	2r	1f	1f
.	2f	.	.
4c	.	.	.
=24	=24	=24	=24
2B-y	2d	1r	0r
2A	2f	.	.
1G	2f	2r	.
.	2e	2g	.
=25	=25	=25	=25
1F	2f	2.a	2r
.	2f	.	2cc
.	.	4g	.
1r	1r	2f	2.dd
.	.	2e	.
.	.	.	4cc
=26	=26	=26	=26
1r	0r	4d	2b-y
.	.	4c	.
.	.	1f	2a
2r	.	.	1g
2c	.	2e	.
=27	=27	=27	=27
2.d	2r	1f	1f
.	2f	.	.
4c	.	.	.
2B-y	2d	1r	1r
2A	2f	.	.
=28	=28	=28	=28
1G	2f	1r	1r
.	2e	.	.
1F	2f	2r	2r
.	2f	2a	2cc
=29	=29	=29	=29
2r	1c	2g	2cc
2F	.	2a	2cc
2F	2d	2f	2a
2G	2d	2d	2b-y
=30	=30	=30	=30
2C	2c	2e	2.cc
2C	2c	2e	.
.	.	.	4b-y
2F	2c	2f	2a
2C	2c	2e	[2g
=31	=31	=31	=31
2D	2A	1d	2g]
2BB-y	2B-y	.	1f
2C	1G	[1c	.
2C	.	.	2e
=32	=32	=32	=32
1r	1F	1c]	1f
[1c	[1F	[1f	[1a
=33	=33	=33	=33
1c]	1F]	1f]	1a]
2B-y	2G	2d	2g
2A	2A	2c	2f
=34	=34	=34	=34
2G	2.B-y	2d	2g
2G	.	2e	2b-y
.	4c	.	.
1F	2d	2f	2a
.	2c	2f	2a
=35	=35	=35	=35
1F	2r	2r	2r
.	2A	2c	2f
1r	2B-y	2d	2g
.	2c	2e	2a
=36	=36	=36	=36
1r	2d	2f	2.b-y
.	2B-y	2d	.
.	.	.	4a
2r	2c	2e	2g
2A	2F	2c	2f
=37	=37	=37	=37
2B-y	2B-y	2d	2g
2c	2A	2.f	2a
2d	1G	.	1b-y
.	.	8eL	.
.	.	8dJ	.
2B-y	.	2e	.
=38	=38	=38	=38
2c	1F	1f	1a
2c	.	.	.
2B-y	1r	2r	2r
2A	.	2c	2f
=39	=39	=39	=39
1G	1r	2d	2b-y
.	.	2e	2b-y
1F	2r	2f	2a
.	2F	4r	2a
.	.	4f	.
=40	=40	=40	=40
1r	2B-y	2f	2dd
.	2B-y	2g	2dd
2r	2A	2a	4cc
.	.	.	4b-y
2F	2A	[2f	4a
.	.	.	4g
=41	=41	=41	=41
2B-y	2d	2f]	2f
2B-y	2d	4e	2g
.	.	4d	.
2A	2c	2e	2a
2F	2A	2f	[2cc
=42	=42	=42	=42
2G	2.B-y	2.d	2cc]
2G	.	.	2b-y
.	4A	4e	.
2D	2F	2f	2a
2E	2G	2e	[2g
=43	=43	=43	=43
1F	1A	2d	4g]
.	.	.	4f
.	.	2.c	1f
1C	1G	.	.
.	.	4B-y	.
.	.	4A	2e
.	.	4G	.
=44	=44	=44	=44
2r	2F	2A	0f
2F	2F	2A	.
2BB-y	2B-y	2d	.
2BB-y	2B-y	2d	.
=45	=45	=45	=45
2F	2A	2c	2r
2F	2A	2c	2f
2BB-y	2d	2f	2b-y
2BB-y	2d	2f	2b-y
=46	=46	=46	=46
1F	2c	2f	2a
.	2F	4r	2a
.	.	4f	.
1r	2B-y	2f	2dd
.	2B-y	2g	2dd
=47	=47	=47	=47
2r	2A	2a	4cc
.	.	.	4b-y
2F	2A	1f	4a
.	.	.	4g
2B-y	2d	.	2f
2B-y	2d	4e	2g
.	.	4d	.
=48	=48	=48	=48
2A	2c	2e	2a
2F	2A	2f	1cc
2G	2.B-y	2d	.
2G	.	2e	2b-y
.	4A	.	.
=49	=49	=49	=49
2D	2F	2f	2a
2E	2G	2e	2.g
1F	1A	2d	.
.	.	.	4f
.	.	[2c	[2f
=50	=50	=50	=50
1C	1G	4c]	2f]
.	.	4B-y	.
.	.	4A	2e
.	.	4G	.
2r	2F	2A	[1fl
2D	2F	2A	.
=51	=51	=51	=51
2D	2B-y	2d	0f_
2BB-y	2B-y	2d	.
2F	2A	2c	.
2F	2A	2c	.
=52	=52	=52	=52
1BB-y	1d	1B-y	0f_
[1Fl	[1cl	[1Al	.
=53	=53	=53	=53
00F]	00c]	00A]	00f]
==	==	==	==
*-	*-	*-	*-
!!!system-decoration: [*]
!!!RDF**kern: i = editorial accidental
!!!RDF**kern: l = terminal long
!!!ENC: Benjamin Ory
!!!END: 2024/4/29
!!!EED: Benjamin Ory
!!!EEV: 2024/4/29
!!!YEC: Copyright 2024 Benjamin Ory, All Rights Reserved
!!!ONB: Translated from MusicXML on 2024/04/29
